icon_installer/data/icons/scalable/actions/show-tape-symbolic.svg

<?xml version="1.0" encoding="UTF-8"?>
<svg height="16px" viewBox="0 0 16 16" width="16px" xmlns="http://www.w3.org/2000/svg">
    <path d="m 2.5 3 c -1.382812 0 -2.5 1.113281 -2.5 2.5 v 6 c 0 1.386719 1.117188 2.5 2.5 2.5 h 11 c 1.386719 0 2.5 -1.113281 2.5 -2.5 v -6 c 0 -1.386719 -1.113281 -2.5 -2.5 -2.5 z m 2 3 c 1.375 0 2.5 1.125 2.5 2.5 c 0 0.566406 -0.210938 1.082031 -0.53125 1.5 h 3.0625 c -0.320312 -0.417969 -0.53125 -0.933594 -0.53125 -1.5 c 0 -1.375 1.125 -2.5 2.5 -2.5 s 2.5 1.125 2.5 2.5 s -1.125 2.5 -2.5 2.5 h -7 c -1.375 0 -2.5 -1.125 -2.5 -2.5 s 1.125 -2.5 2.5 -2.5 z m 0 1 c -0.832031 0 -1.5 0.664062 -1.5 1.5 s 0.667969 1.5 1.5 1.5 c 0.835938 0 1.5 -0.664062 1.5 -1.5 s -0.664062 -1.5 -1.5 -1.5 z m 7 0 c -0.832031 0 -1.5 0.664062 -1.5 1.5 s 0.667969 1.5 1.5 1.5 c 0.835938 0 1.5 -0.664062 1.5 -1.5 s -0.664062 -1.5 -1.5 -1.5 z m 0 0" fill="#222222"/>
</svg>

<svg xmlns="http://www.w3.org/2000/svg" width="16" height="16"><path fill="#222" d="M2.5 3A2.495 2.495 0 0 0 0 5.5v6C0 12.887 1.117 14 2.5 14h11c1.387 0 2.5-1.113 2.5-2.5v-6C16 4.113 14.887 3 13.5 3zm2 3C5.875 6 7 7.125 7 8.5c0 .566-.21 1.082-.531 1.5H9.53A2.467 2.467 0 0 1 9 8.5C9 7.125 10.125 6 11.5 6S14 7.125 14 8.5 12.875 11 11.5 11h-7C3.125 11 2 9.875 2 8.5S3.125 6 4.5 6zm0 1C3.668 7 3 7.664 3 8.5S3.668 10 4.5 10C5.336 10 6 9.336 6 8.5S5.336 7 4.5 7zm7 0c-.832 0-1.5.664-1.5 1.5s.668 1.5 1.5 1.5c.836 0 1.5-.664 1.5-1.5S12.336 7 11.5 7zm0 0"/></svg>
